tools/download-figma-icons/icons/outlined-large/business-building.svg

<svg width="64" height="64" viewBox="0 0 64 64" fill="none" xmlns="http://www.w3.org/2000/svg">
<path d="M62.5 17H50V9H51.5C51.8978 9 52.2794 8.84196 52.5607 8.56066C52.842 8.27936 53 7.89782 53 7.5V1.5C53 1.10218 52.842 0.720644 52.5607 0.43934C52.2794 0.158035 51.8978 0 51.5 0L12.5 0C12.1022 0 11.7206 0.158035 11.4393 0.43934C11.158 0.720644 11 1.10218 11 1.5V7.5C11 7.89782 11.158 8.27936 11.4393 8.56066C11.7206 8.84196 12.1022 9 12.5 9H14V17H1.5C1.10218 17 0.720644 17.158 0.43934 17.4393C0.158035 17.7206 0 18.1022 0 18.5L0 62.5C0 62.8978 0.158035 63.2794 0.43934 63.5607C0.720644 63.842 1.10218 64 1.5 64H62.5C62.8978 64 63.2794 63.842 63.5607 63.5607C63.842 63.2794 64 62.8978 64 62.5V18.5C64 18.1022 63.842 17.7206 63.5607 17.4393C63.2794 17.158 62.8978 17 62.5 17ZM14 3H50V6H14V3ZM3 20H14V61H3V20ZM17 18.5V9H47V61H17V18.5ZM61 61H50V20H61V61Z" fill="black"/>
<path d="M28.5 25H23.5C23.1022 25 22.7206 25.158 22.4393 25.4393C22.158 25.7206 22 26.1022 22 26.5C22 26.8978 22.158 27.2794 22.4393 27.5607C22.7206 27.842 23.1022 28 23.5 28H28.5C28.8978 28 29.2794 27.842 29.5607 27.5607C29.842 27.2794 30 26.8978 30 26.5C30 26.1022 29.842 25.7206 29.5607 25.4393C29.2794 25.158 28.8978 25 28.5 25Z" fill="black"/>
<path d="M40.5 25H35.5C35.1022 25 34.7206 25.158 34.4393 25.4393C34.158 25.7206 34 26.1022 34 26.5C34 26.8978 34.158 27.2794 34.4393 27.5607C34.7206 27.842 35.1022 28 35.5 28H40.5C40.8978 28 41.2794 27.842 41.5607 27.5607C41.842 27.2794 42 26.8978 42 26.5C42 26.1022 41.842 25.7206 41.5607 25.4393C41.2794 25.158 40.8978 25 40.5 25Z" fill="black"/>
<path d="M28.5 17H23.5C23.1022 17 22.7206 17.158 22.4393 17.4393C22.158 17.7206 22 18.1022 22 18.5C22 18.8978 22.158 19.2794 22.4393 19.5607C22.7206 19.842 23.1022 20 23.5 20H28.5C28.8978 20 29.2794 19.842 29.5607 19.5607C29.842 19.2794 30 18.8978 30 18.5C30 18.1022 29.842 17.7206 29.5607 17.4393C29.2794 17.158 28.8978 17 28.5 17Z" fill="black"/>
<path d="M40.5 17H35.5C35.1022 17 34.7206 17.158 34.4393 17.4393C34.158 17.7206 34 18.1022 34 18.5C34 18.8978 34.158 19.2794 34.4393 19.5607C34.7206 19.842 35.1022 20 35.5 20H40.5C40.8978 20 41.2794 19.842 41.5607 19.5607C41.842 19.2794 42 18.8978 42 18.5C42 18.1022 41.842 17.7206 41.5607 17.4393C41.2794 17.158 40.8978 17 40.5 17Z" fill="black"/>
<path d="M28.5 33H23.5C23.1022 33 22.7206 33.158 22.4393 33.4393C22.158 33.7206 22 34.1022 22 34.5C22 34.8978 22.158 35.2794 22.4393 35.5607C22.7206 35.842 23.1022 36 23.5 36H28.5C28.8978 36 29.2794 35.842 29.5607 35.5607C29.842 35.2794 30 34.8978 30 34.5C30 34.1022 29.842 33.7206 29.5607 33.4393C29.2794 33.158 28.8978 33 28.5 33Z" fill="black"/>
<path d="M40.5 33H35.5C35.1022 33 34.7206 33.158 34.4393 33.4393C34.158 33.7206 34 34.1022 34 34.5C34 34.8978 34.158 35.2794 34.4393 35.5607C34.7206 35.842 35.1022 36 35.5 36H40.5C40.8978 36 41.2794 35.842 41.5607 35.5607C41.842 35.2794 42 34.8978 42 34.5C42 34.1022 41.842 33.7206 41.5607 33.4393C41.2794 33.158 40.8978 33 40.5 33Z" fill="black"/>
<path d="M28.5 41H23.5C23.1022 41 22.7206 41.158 22.4393 41.4393C22.158 41.7206 22 42.1022 22 42.5C22 42.8978 22.158 43.2794 22.4393 43.5607C22.7206 43.842 23.1022 44 23.5 44H28.5C28.8978 44 29.2794 43.842 29.5607 43.5607C29.842 43.2794 30 42.8978 30 42.5C30 42.1022 29.842 41.7206 29.5607 41.4393C29.2794 41.158 28.8978 41 28.5 41Z" fill="black"/>
<path d="M40.5 41H35.5C35.1022 41 34.7206 41.158 34.4393 41.4393C34.158 41.7206 34 42.1022 34 42.5C34 42.8978 34.158 43.2794 34.4393 43.5607C34.7206 43.842 35.1022 44 35.5 44H40.5C40.8978 44 41.2794 43.842 41.5607 43.5607C41.842 43.2794 42 42.8978 42 42.5C42 42.1022 41.842 41.7206 41.5607 41.4393C41.2794 41.158 40.8978 41 40.5 41Z" fill="black"/>
<path d="M28.5 49H23.5C23.1022 49 22.7206 49.158 22.4393 49.4393C22.158 49.7206 22 50.1022 22 50.5C22 50.8978 22.158 51.2794 22.4393 51.5607C22.7206 51.842 23.1022 52 23.5 52H28.5C28.8978 52 29.2794 51.842 29.5607 51.5607C29.842 51.2794 30 50.8978 30 50.5C30 50.1022 29.842 49.7206 29.5607 49.4393C29.2794 49.158 28.8978 49 28.5 49Z" fill="black"/>
<path d="M40.5 49H35.5C35.1022 49 34.7206 49.158 34.4393 49.4393C34.158 49.7206 34 50.1022 34 50.5C34 50.8978 34.158 51.2794 34.4393 51.5607C34.7206 51.842 35.1022 52 35.5 52H40.5C40.8978 52 41.2794 51.842 41.5607 51.5607C41.842 51.2794 42 50.8978 42 50.5C42 50.1022 41.842 49.7206 41.5607 49.4393C41.2794 49.158 40.8978 49 40.5 49Z" fill="black"/>
</svg>

<svg xmlns="http://www.w3.org/2000/svg" width="64" height="64" fill="none" viewBox="0 0 64 64"><path fill="currentColor" d="M62.5 17H50V9h1.5A1.5 1.5 0 0 0 53 7.5v-6A1.5 1.5 0 0 0 51.5 0h-39A1.5 1.5 0 0 0 11 1.5v6A1.5 1.5 0 0 0 12.5 9H14v8H1.5A1.5 1.5 0 0 0 0 18.5v44A1.5 1.5 0 0 0 1.5 64h61a1.5 1.5 0 0 0 1.5-1.5v-44a1.5 1.5 0 0 0-1.5-1.5M14 3h36v3H14zM3 20h11v41H3zm14-1.5V9h30v52H17zM61 61H50V20h11z"/><path fill="currentColor" d="M28.5 25h-5a1.5 1.5 0 1 0 0 3h5a1.5 1.5 0 1 0 0-3m12 0h-5a1.5 1.5 0 1 0 0 3h5a1.5 1.5 0 1 0 0-3m-12-8h-5a1.5 1.5 0 1 0 0 3h5a1.5 1.5 0 1 0 0-3m12 0h-5a1.5 1.5 0 1 0 0 3h5a1.5 1.5 0 1 0 0-3m-12 16h-5a1.5 1.5 0 1 0 0 3h5a1.5 1.5 0 1 0 0-3m12 0h-5a1.5 1.5 0 1 0 0 3h5a1.5 1.5 0 1 0 0-3m-12 8h-5a1.5 1.5 0 1 0 0 3h5a1.5 1.5 0 1 0 0-3m12 0h-5a1.5 1.5 0 1 0 0 3h5a1.5 1.5 0 1 0 0-3m-12 8h-5a1.5 1.5 0 1 0 0 3h5a1.5 1.5 0 1 0 0-3m12 0h-5a1.5 1.5 0 1 0 0 3h5a1.5 1.5 0 1 0 0-3"/></svg>
